X:2
T:Kind Robin Come Again
R:reel
O:19th century Scotland
B:William Christie Collection, 1820
D:Highland Classic, Carl MacKenzie, 2007
S:http://www.cranfordpub.com/recordings/carl.htm
Z:psc -  http://www.cranfordpub.com
N:also played in raised bass tuning AEAE
L:1/8
Q:333
M:C|
K:A
D|CE E/E/E ({E}F2) EC|EAcA BGEG|AE E/E/E ({E}F2) EC|B,EA,B, CA,A,:|
||d|ceAa f2 ed|ceAc dfBd|ceAa f2 ec|BeAB cAAd|
ceAa f2 ed|ceAc dfBd|cAdB cAEC|B,EA,B, CA,A,|]
